X:26
T:Dwje gitary
O:russia
M:2/4
L:1/8
Q:1/4=108
K:Cm
V:1
"Fm" z/.F/ .G/.c/[dG][cG]|"Cm" z/.E/ .G/.c/[dG][cG]|"G7" z/.F/ .G/.=B/[d=B]=B |.c/.g/.^f/.g/ .e/.c/.G/.E/ |
"Fm" z/.F/.G/.c/ .d/.c/.G/.F/ |"Cm" z/.E/.G/.B/ .d/.c/.G/.E/ |"G7" z/.F/.G/.=B/ d=B |"Cm" cG [cG E]z ||
"Fm" G3/2 F/GF |"Cm" FE E2 |"G7" E3/2 D/E=B, |"Cm" D2 C2 |
CG, G,C |CG, G,2 |"G7" G3/2 F/E=B, |"Cm" D2 Cz ||
"Fm" G2 (F2 |"Cm" F)E (E2 |"G7" E)D E=B, |"Cm" D2 C2 |
"Fm" [BF]G[(G2F2]|"Cm" [G)F]G[G2E2]|[G3/2=B,3/2]F/ED |C[CF,G,][C2G,2 D,2]||
{^F/}Gg z/g/^f/g/ |g2 g2 |{^F/}Gg z/g/^f/g/ |g2 g2 |
"G7" zg z/g/^f/g/ |g3/4 g/4f/g/g g|"Cm" z gz/g/ ^f/g/|g3/4 g/4^f/g/g g|
"Fm" b/c/ f/g/b/c/ f/g/|"Cm" g/c/ e/g/g/c/ e/g/|"G7" g/=B/ d/f/g/=B/ d/f/|f/G/ c/e/f/G/ c/e/|
e/F/ G/d/e/F/ G/d/|"G7" d3/2 c/c2 |c=B =A=B |"Cm" c2 c'2 :|
"Fm" [c4G4 F4]|"Cm" [c4G4 E4]|"G7" c=B =A=B |"Cm" [c4G4 E4]|
"Fm" [c4G4 F4]|"Cm" [c4G4 E4]|"G7" c=B =A=B |"Cm" cz [cG E]z ||
"Fm" B/G/G/G/ BG |"Cm" G/G/^F/G/ GG |"G7" G/F/=E/F/ GF |"Cm" F/E/D/E/ FE |
"Fm" E/D/^C/D/ ED |"G7" D/C/=B,/C/ DC |"G7" CB, G,B, |"Cm" C4 ||
"Fm" [c4G4 F4]|"Cm" [c4G4 E4]|"G7" c=B =A=B |"Cm" [c4G4 E4]|
"Fm" [c4G4 F4]|"Cm" [c4G4 E4]|"G7" c=B =A=B |"Cm" cz [cG E]z |]
